icon/pk/lip-tattoo.svg

<svg viewBox="0 0 48 48" fill="none" xmlns="http://www.w3.org/2000/svg" height="1em" width="1em">
  <path d="M25 19.8902C23.5 17.37 19.5 17.3699 18 19.8902C16.8849 21.7639 13 24.5 12 24.9432C13.6667 27.2955 19.5 32 25 32C31.5 32 36.1667 27.2955 38 24.9432C37 24.5 34.8361 22.8196 32.5 19.8902C30.5 17.3823 26.5 17.3823 25 19.8902Z" fill="#2F88FF" stroke="black" stroke-width="4" stroke-linecap="round" stroke-linejoin="round"/>
  <path d="M12 25C15.7899 25.7546 26.2958 26.8111 38 25" stroke="white" stroke-width="4" stroke-linecap="round" stroke-linejoin="round"/>
  <path d="M44 24C44 35.0457 35.0457 44 24 44C12.9543 44 4 35.0457 4 24C4 12.9543 12.9543 4 24 4" stroke="black" stroke-width="4" stroke-linecap="round" stroke-linejoin="round"/>
  <path d="M39 8.47214L39.343 9.52786H40.4531L39.555 10.1803L39.8981 11.2361L39 10.5836L38.1019 11.2361L38.445 10.1803L37.5469 9.52786H38.657L39 8.47214Z" stroke="black" stroke-width="4"/>
  <path d="M35.0001 22.6562C36.2936 23.9045 37.3745 24.6658 38.0001 24.943C37.1558 26.0262 35.7108 27.6081 33.7627 28.9998" stroke="black" stroke-width="4" stroke-linecap="round" stroke-linejoin="round"/>
  <path d="M16.0978 22C14.5549 23.374 12.6562 24.6523 12 24.9432C12.9413 26.2716 15.2114 28.3503 18 29.9081" stroke="black" stroke-width="4" stroke-linecap="round" stroke-linejoin="round"/>
</svg>

<svg width="48" height="48" fill="none" xmlns="http://www.w3.org/2000/svg"><path d="M25 19.89c-1.5-2.52-5.5-2.52-7 0-1.115 1.874-5 4.61-6 5.053C13.667 27.295 19.5 32 25 32c6.5 0 11.167-4.704 13-7.057-1-.443-3.164-2.123-5.5-5.053-2-2.508-6-2.508-7.5 0Z" fill="#2F88FF" stroke="#000" stroke-width="4" stroke-linecap="round" stroke-linejoin="round"/><path d="M12 25c3.79.755 14.296 1.811 26 0" stroke="#fff" stroke-width="4" stroke-linecap="round" stroke-linejoin="round"/><path d="M44 24c0 11.046-8.954 20-20 20S4 35.046 4 24 12.954 4 24 4" stroke="#000" stroke-width="4" stroke-linecap="round" stroke-linejoin="round"/><path d="m39 8.472.343 1.056h1.11l-.898.652.343 1.056-.898-.652-.898.652.343-1.056-.898-.652h1.11L39 8.472Z" stroke="#000" stroke-width="4"/><path d="M35 22.656c1.294 1.248 2.374 2.01 3 2.287A20.974 20.974 0 0 1 33.763 29M16.098 22c-1.543 1.374-3.442 2.652-4.098 2.943.941 1.329 3.211 3.407 6 4.965" stroke="#000" stroke-width="4" stroke-linecap="round" stroke-linejoin="round"/></svg>
